X:79
T:J'entends la caille
R:Bourree 2 temps
C:trad.
A:Morvan
O:France
M:2/4
L:1/8
Q:1/4=120
K:C
A>c|BdcB|A^GA>c|BdcB|A2e>d|cAB^G|E2 e>d|
cAB^G|E2 A>c|BdcB|A^GA>c|BdcB|A2||
W:
W:J'entends la caille dans la paille
W:J'entends la caille dans le bl
W:Et le rat sur le grenier
W:Et le rat sur le grenier
W:Bichez donc vos filles garons
W:Bichez donc vos filles.
